X:2534
T:Cantar de Ronda (CT 012)
R:Ronda
C:Tradicional
S:Música Tradicional Asturiana, (C) Tello & Tito. Asturies, 2001.
S:http://pagina.de/MusTradAst <telloytito@asturies.org>
N:Canción de ronda, transcrita en Villamarcel, ayuntamiento de Quirós.
O:Villamarcel (Quirós)
A:Asturies
Z:Cancioneru de Torner 012
M:2/4
L:1/8
Q:1/4=112
W:El que quiera buena moza (bis)
W:no la busque en romería(bis)
W:
W:vaya a su casa a buscarla
W:en ropas de cada día.
K:G
G/2G/2|Ad cd|cc- c/2z/2 G/2G/2|Ad cd|
cc- c/2z/2 A/2A/2|AB AB|(A/2G/4A/4)G- G/2z/2 G/2G/2|Ad cd|
cc- c/2z/2 G/2G/2|Ad cd|cc- c/2z/2 A/2A/2|AB AB|(A/2G/4A/4)G- G||


